X:1
T:Ye that pass by, behold the man
T:Ye that pass by, behold the man - Valentia (W. J. White)
C:W. J. White
Z:p56, The Sacred Herald,
Z:ed. W. J. White,
Z:London: [c1820]
%%score [ 1 2 3 4 ]
L:1/8
M:2/2
K:Bmin
V:1 treble nm="Soprano" snm="S."
V:2 treble nm="Alto" snm="A."
V:3 treble-8 transpose=-12 nm="Tenor" snm="T."
V:4 bass nm="Bass" snm="B."
V:1
 d4 c2 ^A2 | (B2 c2) (d2 f2) | e4 d4 | c4 z4 | z2 f2 (fe)(dc) | (B2 c2 d2) e2 | d4 c4 | B8 | %8
w: Thou dear, thou|suff- * ’ring _|Son of|God,|How doth _ thy _|heart _ _ to|sin- ners|move!|
w: Ye that pass|by, _ be- *|hold the|man,|The man _ of _|grief _ _ con-|demn’d for|you:|
w: See there his|tem- * ples _|crown’d with|thorns,|His bleed- * ing _|hands _ _ ex-|tend- ed|wide;|
 c4 d2 e2 | f4 e4 | (d2 f2) (e2 d2) |!p! c8 | (d2 c2) B2 ^A2 | B4 F4 | B4 c4 | (d2 c2 d2 e2 | f8) | %17
w: Sprin- kle on|us thy|pre- * cious _|blood,|And _ melt us|with thy|dy- ing|love, _ _ _|_|
w: The Lamb of|God, for|sin- * ners _|slain,|Weep- * ing to|Cal- va-|ry pur-|sue, _ _ _|_|
w: His stream- ing|feet trans-|fix’d _ and _|torn,|The _ foun- tain|gush- ing|from his|side, _ _ _|_|
!f! f4 e2 e2 | (d3 e) f4 | (e2 d2) c4 | B8 |] %21
w: and melt us|with _ thy|dy- * ing|love.|
w: weep- ing to|Cal- * va-|ry _ pur-|sue.|
w: the foun- tain|gush- * ing|from _ his|side.|
V:2
 F4 F2 F2 | F4 F4 | G4 F4 | F4 z4 | z2 F2 F2 F2 | F6 G2 | F4 F4 | F8 | F4 F2 E2 | D4 C4 | D4 G4 | %11
w: Thou dear, thou|suff- ’ring|Son of|God,|How doth thy|heart to|sin- ners|move!|Sprin- kle on|us thy|pre- cious|
w: Ye that pass|by, be-|hold the|man,|The man of|grief con-|demn’d for|you:|The Lamb of|God, for|sin- ners|
w: See there his|tem- ples|crown’d with|thorns,|His bleed- ing|hands ex-|tend- ed|wide;|His stream- ing|feet trans-|fix’d and|
!p! F8 | (F2 E2) D2 C2 | F4 F4 | F4 F4 | (F4 B4 |"^["!f!"^]" ^A8) | B4 ^A2 A2 | B4 F4 | G4 F4 | %20
w: blood,|And _ melt us|with thy|dy- ing|love, _|_|and melt us|with thy|dy- ing|
w: slain,|Weep- * ing to|Cal- va-|ry pur-|sue, _|_|weep- ing to|Cal- va-|ry pur-|
w: torn,|The _ foun- tain|gush- ing|from his|side, _|_|the foun- tain|gush- ing|from his|
 F8 |] %21
w: love.|
w: sue.|
w: side.|
V:3
 B4 c2 c2 | (d2 c2) (B2 d2) | c4 B4 | ^A2 F2 (fg)(fe) | d4 c4 | d2 c2 B2 B2 | B4 ^A4 | B8 | %8
w: Thou dear, thou|suff- * ’ring _|Son of|God, How doth _ thy _|heart, how|doth thy heart to|sin- ners|move!|
w: Ye that pass|by, _ be- *|hold the|man, The man _ of _|grief, the|man of grief con-|demn’d for|you:|
w: See there his|tem- * ples _|crown’d with|thorns, His bleed- * ing _|hands, his|bleed- ing hands ex-|tend- ed|wide;|
 ^A4 B2 c2 | (d2 A2) (A2 c2) | (d2 B2) (c2 B2) | ^A8 | z8 |"^["!p!"^]" d4 d2 c2 | d4 A4 | %15
w: Sprin- kle on|us _ thy _|pre- * cious _|blood,||And melt us|with thy|
w: The Lamb of|God, _ for _|sin- * ners _|slain,||Weep- ing to|Cal- va-|
w: His stream- ing|feet _ trans- *|fix’d _ and _|torn,||The foun- tain|gush- ing|
 (d2 A2) (d2 B2) | c8 |!f! d4 c2 e2 | (f3 e) d4 | (c2 B2) ^A4 | B8 |] %21
w: dy- * ing _|love,|and melt us|with _ thy|dy- * ing|love.|
w: ry _ pur- *|sue,|weep- ing to|Cal- * va-|ry _ pur-|sue.|
w: from _ his _|side,|the foun- tain|gush- * ing|from _ his|side.|
V:4
 B,4 F,2 F,2 | B,4 B,4 | E,4 B,,4 | F,2 F,2 (F,E,)(D,C,) | B,,4 F,4 | B,2 ^A,2 B,2 E,2 | F,4 F,4 | %7
w: Thou dear, thou|suff- ’ring|Son of|God, How doth _ thy _|heart, how|doth thy heart to|sin- ners|
w: Ye that pass|by, be-|hold the|man, The man _ of _|grief, the|man of grief con-|demn’d for|
w: See there his|tem- ples|crown’d with|thorns, His bleed- * ing _|hands, his|bleed- ing hands ex-|tend- ed|
 B,,8 | F,4 B,2 A,2 | D,4 A,4 | B,4 E,4 | F,8 | z8 | %13
w: move!|Sprin- kle on|us thy|pre- cious|blood,||
w: you:|The Lamb of|God, for|sin- ners|slain,||
w: wide;|His stream- ing|feet trans-|fix’d and|torn,||
"^Notes:The order of staves in the original is Tenor - Alto - Soprano - Bass, with the alto and tenor parts given an octave abovesounding pitch. The Soprano and Bass staves are bracketed together and a keyboard accompaniment is indicatedbetween these parts with small notes: this keyboard accompaniment has been omitted from the present edition.In addition to the first verse of the text, which is given in the source, three further verses of the text have here beenunderlaid editorially.""^["!p!"^]" (D2 C2) B,2 ^A,2 | %14
w: And _ melt us|
w: Weep- * ing to|
w: The _ foun- tain|
 B,4 F,4 | (B,2 A,2) G,4 | (F,2 E,2 D,2 C,2) |"^["!f!"^]" B,,4 C,2 C,2 | D,4 D,4 | E,4 F,4 | %20
w: with thy|dy- * ing|love, _ _ _|and melt us|with thy|dy- ing|
w: Cal- va-|ry _ pur-|sue, _ _ _|weep- ing to|Cal- va-|ry pur-|
w: gush- ing|from _ his|side, _ _ _|the foun- tain|gush- ing|from his|
 B,,8 |] %21
w: love.|
w: sue.|
w: side.|

